src/assets/images/currencies/maid.svg

<svg height="32" viewBox="0 0 32 32" width="32" xmlns="http://www.w3.org/2000/svg"><path d="m21.4405609 8.16070465c.2652664.08956855.5358381.21383192.8773236.39645381.0233014.01246127.0543955.02939582.0911509.04959155l.0591128.03258797.798128.44574587c.0691814.02829172.1249355.08783153.1440972.1652529l.0071544.05944658v10.06246947c0 2.200411-.4265893 3.0814316-1.7087096 3.9152715-.207975.1352586-1.0470972.6359506-1.1145592.6756682l-.0021338.001154-.0551892.0249881c-.0780949.0242337-.1598916.0057783-.2203043-.041258l-8.7482451-5.0804769c-.8311249-.4784235-1.4010629-.9166446-1.78519061-1.3710035-.57949336-.6854436-.72027365-1.2283078-.76359672-2.5814072l-.00706432-.2634337-.01251537-.500888c-.00010252-.0147826.00019169-.0215922.00076692-.028381l-.00076692.028381c-.00071316-.0230328.0016741-.0450744.00671368-.0658572.00162588-.0060087.00336182-.0121084.00533855-.0181419.00418736-.0132248.00953858-.0256677.0158315-.0374705.00370874-.0069055.00777005-.0137526.01219688-.020417.00632248-.009374.01314303-.0181501.02050425-.0263982.00263301-.0031188.00523786-.0058997.00792139-.0086293l.01271037-.0118822c.00920485-.0081229.01900162-.0155414.02928859-.0221948l.01119871-.0068287 8.770292-5.0307534c1.5566167-.89512881 2.5302724-1.08541445 3.5485454-.74158945zm-1.220665 5.63729535-1.71 1.016v2.098l.0010282.0048445v2.4504932c0 .1245067-.0898989.2178487-.1977248.2385237l-.0550737.0040898-.0560623-.0091743-.0550517-.023591-8.6515196-5.0071582.00831694.3160634c.03426146 1.0993527.12987688 1.5889269.48234677 2.0834149l.07953199.1062609.0878223.1077555c.3047211.3604341.7553933.7209678 1.4046882 1.1149102l.252899.1493595 8.4088924 4.8828059zm.2413733-.6708626c.0968474.0015148.1786812.0513889.2197693.1292706l.0203646.0533655.0072413.0598241-.000825 9.9600306.6848018-.4155652.1898743-.1255007c.9828629-.6788482 1.3207294-1.3925658 1.3482512-3.1675865l.0018607-.248723-.0009435-9.64269963-8.3047452 4.80071103 1.7289772.9997358 1.678-.997c.006382-.0228737.0147171-.0425692.0254487-.0608587l.039097-.0501618.0517558-.0387952 2.1928052-1.2252467.0178933-.0049376.0365638-.0161764c.0186815-.0056168.0375549-.0088033.0562804-.0097531zm-2.0921265-3.93686455-.2356202.13252333-8.4062386 4.82050162 8.2979563 4.8026508v-1.8892496l-1.7763443-1.028699-.0153795-.0058683-2.2117632-1.2821205c-.141109-.0817985-.1586363-.2703484-.0526985-.3786997l.0529607-.0409811.5998805-.3473304 8.0595492-4.65950846-.5290657-.29445211-.2469758-.13024149c-.2348446-.11930786-.4313436-.20496469-.6199738-.26865663-.8195847-.27673689-1.6118558-.14617288-2.9162871.57013154zm-.3432468 5.91072715-1.19.707 1.19.688z" fill="#ff9580" fill-rule="evenodd"/></svg>

<svg xmlns="http://www.w3.org/2000/svg" width="32" height="32" viewBox="0 0 32 32">
  <path fill="#FF9580" fill-rule="evenodd" d="M21.4405609,8.16070465 C21.7058273,8.2502732 21.976399,8.37453657 22.3178845,8.55715846 C22.3411859,8.56961973 22.37228,8.58655428 22.4090354,8.60675001 L22.4681482,8.63933798 L23.2662762,9.08508385 C23.3354576,9.11337557 23.3912117,9.17291538 23.4103734,9.25033675 L23.4175278,9.30978333 L23.4175278,19.3722528 C23.4175278,21.5726638 22.9909385,22.4536844 21.7088182,23.2875243 C21.5008432,23.4227829 20.661721,23.9234749 20.594259,23.9631925 L20.5921252,23.9643465 L20.536936,23.9893346 C20.4588411,24.0135683 20.3770444,23.9951129 20.3166317,23.9480766 L11.5683866,18.8675997 C10.7372617,18.3891762 10.1673237,17.9509551 9.78319599,17.4965962 C9.20370263,16.8111526 9.06292234,16.2682884 9.01959927,14.915189 L9.01253495,14.6517553 L9.00001958,14.1508673 C8.99991706,14.1360847 9.00021127,14.1292751 9.0007865,14.1224863 L9.00001958,14.1508673 C8.99930642,14.1278345 9.00169368,14.1057929 9.00673326,14.0850101 C9.00835914,14.0790014 9.01009508,14.0729017 9.01207181,14.0668682 C9.01625917,14.0536434 9.02161039,14.0412005 9.02790331,14.0293977 C9.03161205,14.0224922 9.03567336,14.0156451 9.04010019,14.0089807 C9.04642267,13.9996067 9.05324322,13.9908306 9.06060444,13.9825825 C9.06323745,13.9794637 9.0658423,13.9766828 9.06852583,13.9739532 L9.0812362,13.962071 C9.09044105,13.9539481 9.10023782,13.9465296 9.11052479,13.9398762 L9.1217235,13.9330475 L17.8920155,8.9022941 C19.4486322,8.00716529 20.4222879,7.81687965 21.4405609,8.16070465 Z M20.2198959,13.798 L18.5098959,14.814 L18.5098959,16.912 L18.5109241,16.9168445 L18.5109241,19.3673377 C18.5109241,19.4918444 18.4210252,19.5851864 18.3131993,19.6058614 L18.2581256,19.6099512 L18.2581256,19.6099512 L18.2020633,19.6007769 L18.1470116,19.5771859 L9.495492,14.5700277 L9.50380894,14.8860911 C9.5380704,15.9854438 9.63368582,16.475018 9.98615571,16.969506 L10.0656877,17.0757669 L10.15351,17.1835224 C10.4582311,17.5439565 10.9089033,17.9044902 11.5581982,18.2984326 L11.8110972,18.4477921 L20.2199896,23.330598 L20.2198959,13.798 Z M20.4612692,13.1271374 C20.5581166,13.1286522 20.6399504,13.1785263 20.6810385,13.256408 L20.7014031,13.3097735 L20.7086444,13.3695976 L20.7078194,23.3296282 L21.3926212,22.914063 L21.5824955,22.7885623 C22.5653584,22.1097141 22.9032249,21.3959965 22.9307467,19.6209758 L22.9326074,19.3722528 L22.9316639,9.72955317 L14.6269187,14.5302642 L16.3558959,15.53 L18.0338959,14.533 C18.0402779,14.5101263 18.048613,14.4904308 18.0593446,14.4721413 L18.0984416,14.4219795 L18.1501974,14.3831843 L20.3430026,13.1579376 L20.3608959,13.153 L20.3974597,13.1368236 C20.4161412,13.1312068 20.4350146,13.1280203 20.4537401,13.1270705 L20.4612692,13.1271374 Z M18.3691427,9.19027285 L18.1335225,9.32279618 L9.7272839,14.1432978 L18.0252402,18.9459486 L18.0252402,17.056699 L16.2488959,16.028 L16.2335164,16.0221317 L14.0217532,14.7400112 C13.8806442,14.6582127 13.8631169,14.4696628 13.9690547,14.3613115 L14.0220154,14.3203304 L14.6218959,13.973 L22.6814451,9.31349154 L22.1523794,9.01903943 L21.9054036,8.88879794 C21.670559,8.76949008 21.47406,8.68383325 21.2854298,8.62014131 C20.4658451,8.34340442 19.673574,8.47396843 18.3691427,9.19027285 Z M18.0258959,15.101 L16.8358959,15.808 L18.0258959,16.496 L18.0258959,15.101 Z"/>
</svg>
